X:1
T:大提琴练习曲_Book1_P3_No.8
T:大提琴练习曲_Book1_P5_No.9
%%score 1 2
L:1/8
Q:1/4=40
M:4/4
K:C
V:1 bass nm="Piano" snm="Pno."
V:2 bass nm="大提琴" snm="Vc."
V:1
 C,,2 C,,2 C,,2 C,,2 | E, F, G, A, G, A, B, C | B, D B, G, F, G, F, D, | E, F, G, A, G, A, B, C | %4
 B, D B, G, F, G, F, D, | E, F, G, A, G, A, B, C | B, A, A, A, A, G, G, G, | %7
 G, F, F, F, F, E, E, E, | D, E, F, D, B,, G, F, D, | E, F, G, A, G, A, B, C | %10
 B, D B, G, F, G, F, D, | E, F, G, A, G, A, B, C | B, D B, G, F, G, F, D, | %13
 E, F, G, A, G, A, B, C | B, A, C B, D C B, A, | A, G, F, E, E, D, C, B,, | C, E, G, C C,2 z2 | %17
 G,, A,, B,, C, B,, C, D, E, | D, E, D, C, A,, C, A,, D,, | G,, A,, B,, C, B,, C, D, E, | %20
 D, E, D, C, A,, C, A,, D,, | G,, A,, B,, C, B,, C, D, G,, | C, B,, C, B,, C, G,, E,, C,, | %23
 D,, G,, B,, D, ^F, D, C, A,, | G,, A,, B,, C, D, E, F, D, | E, F, G, A, G, A, B, C | %26
 B, D B, G, F, G, F, D, | E, F, G, A, G, A, B, C | B, D B, G, F, G, F, D, | %29
 E, F, G, A, G, A, B, C | B, A, C B, D C B, A, | A, G, F, E, E, D, C, B,, | C, E, G, C C,2 z2 |] %33
V:2
 C,,2 C,,2 C,,2 C,,2 | E,F,G,A, G,A,B,C | B,DB,G, F,G,F,D, | E,F,G,A, G,A,B,C | B,DB,G, F,G,F,D, | %5
 E,F,G,A, G,A,B,C | B,A,A,A, A,G,G,G, | G,F,F,F, F,E,E,E, | D,E,F,D, B,,G,F,D, | E,F,G,A, G,A,B,C | %10
 B,DB,G, F,G,F,D, | E,F,G,A, G,A,B,C | B,DB,G, F,G,F,D, | E,F,G,A, G,A,B,C | B,A,CB, DCB,A, | %15
 A,G,F,E, E,D,C,B,, | C,E,G,C C,2 z2 | G,,A,,B,,C, B,,C,D,E, | D,E,D,C, A,,C,A,,D,, | %19
 G,,A,,B,,C, B,,C,D,E, | D,E,D,C, A,,C,A,,D,, | G,,A,,B,,C, B,,C,D,G,, | C,B,,C,B,, C,G,,E,,C,, | %23
 D,,G,,B,,D, ^F,D,C,A,, | G,,A,,B,,C, D,E,F,D, | E,F,G,A, G,A,B,C | B,DB,G, F,G,F,D, | %27
 E,F,G,A, G,A,B,C | B,DB,G, F,G,F,D, | E,F,G,A, G,A,B,C | B,A,CB, DCB,A, | A,G,F,E, E,D,C,B,, | %32
 C,E,G,C C,2 z2 |] %33

